svg/fluentui-system-icons/ic_fluent_battery_9_24_filled.svg

<svg width="24" height="24" viewBox="0 0 24 24" fill="none" xmlns="http://www.w3.org/2000/svg">
<path d="M5.99976 9C5.44748 9 4.99976 9.44772 4.99976 10V14C4.99976 14.5523 5.44747 15 5.99976 15H15.0001C15.5524 15 16.0001 14.5523 16.0001 14V10C16.0001 9.44772 15.5524 9 15.0001 9H5.99976ZM1.99976 9C1.99976 7.34315 3.34291 6 4.99976 6H17.5004C19.1573 6 20.5004 7.34315 20.5004 9V10H21.0004C21.1825 10 21.3533 10.0487 21.5004 10.1338C21.7993 10.3067 22.0004 10.6299 22.0004 11V13C22.0004 13.3701 21.7993 13.6933 21.5004 13.8662C21.3533 13.9513 21.1825 14 21.0004 14H20.5004V15C20.5004 16.6569 19.1573 18 17.5004 18H4.99976C3.34291 18 1.99976 16.6569 1.99976 15V9Z" fill="#212121"/>
</svg>

<svg xmlns="http://www.w3.org/2000/svg" width="24" height="24"><path d="M6 9a1 1 0 0 0-1 1v4a1 1 0 0 0 1 1h9a1 1 0 0 0 1-1v-4a1 1 0 0 0-1-1H6ZM2 9a3 3 0 0 1 3-3h12.5a3 3 0 0 1 3 3v1h.5a1 1 0 0 1 1 1v2a1 1 0 0 1-1 1h-.5v1a3 3 0 0 1-3 3H5a3 3 0 0 1-3-3V9Z"/></svg>
